X:2
S:Eddie and Finbar Furey
K:Ador
M:3/4
L:1/8
A2 | A3 B c2 | d3 e d2 | c3 A B2 | c4 c2 | A3 B c2 | d3 e d2 | c3 A B2 | c4 c2 |
A3 B c2 | d2 e2 d2 | c2 A2 G2 | F2 G2 A2 | B3 B B2 | c2 A2 G2 | F3 D D2 | D6 |
D3 E F2 | G6 | A2 F2 D2 | F(A A3) | B3 B B2 | c3 A G2 | F3 D D2 | D6 |
| B3 B B2 | c3 A G2 | F3 D D2 | D4 :|
